src/advancedKubectl/kubernetes-api.svg

<?xml version="1.0" encoding="UTF-8"?>
<svg width="1200px" height="750px" viewBox="0 0 1200 750" version="1.1" xmlns="http://www.w3.org/2000/svg" xmlns:xlink="http://www.w3.org/1999/xlink">
    <!-- Generator: Sketch 53.2 (72643) - https://sketchapp.com -->
    <title>kubernetes-api</title>
    <desc>Created with Sketch.</desc>
    <g id="kubernetes-api" stroke="none" stroke-width="1" fill="none" fill-rule="evenodd">
        <g id="Group" transform="translate(707.000000, 52.000000)">
            <g id="Group-3" transform="translate(40.000000, 323.000000) rotate(-90.000000) translate(-40.000000, -323.000000) translate(-283.000000, 283.000000)" fill="#53777A">
                <path d="M14.5,0.5 L631.5,0.5 C639.231986,0.5 645.5,6.7680135 645.5,14.5 L645.5,65.5 C645.5,73.2319865 639.231986,79.5 631.5,79.5 L14.5,79.5 C6.7680135,79.5 0.5,73.2319865 0.5,65.5 L0.5,14.5 C0.5,6.7680135 6.7680135,0.5 14.5,0.5 Z" id="Rectangle"></path>
            </g>
            <text id="KUBERNETES-API" transform="translate(39.500000, 319.000000) rotate(-90.000000) translate(-39.500000, -319.000000) " font-family="Arial-BoldMT, Arial" font-size="46.640001" font-weight="bold" fill="#FFFFFF">
                <tspan x="-166.519907" y="335">KUBERNETES API</tspan>
            </text>
        </g>
        <g id="logo-kube" transform="translate(852.000000, 225.000000)" fill-rule="nonzero" stroke="#FFFFFF" stroke-width="0.633600074">
            <path d="M152.932258,0.0263553859 C150.20944,0.163586162 147.541657,0.839018421 145.085414,2.01302778 L38.0095493,53.2006697 C32.3955611,55.883092 28.3179359,60.9562063 26.9308468,66.9840658 L0.514509296,181.964444 C-0.717874523,187.316626 0.284887479,192.9359 3.29445565,197.542695 C3.65565829,198.100124 4.04412832,198.639682 4.4584726,199.159436 L78.5721163,291.354736 C82.458217,296.187335 88.3502862,299.001214 94.5807729,299 L213.43375,298.972597 C219.661907,298.977139 225.55356,296.168501 229.442407,291.341035 L303.528662,199.132033 C307.416842,194.297012 308.87362,187.967692 307.48632,181.937041 L281.028899,66.9566634 C279.64181,60.928804 275.564185,55.8556896 269.950197,53.1732673 L162.860638,2.01302778 C159.771054,0.536217127 156.357156,-0.146905153 152.932258,0.0263553859 Z" id="path3055" fill="#326CE5"></path>
            <path d="M153.993301,39 C150.450641,39.00036 147.578164,42.1945367 147.578586,46.1346705 C147.57859,46.1951418 147.590954,46.2529261 147.59227,46.3130373 C147.587051,46.8484054 147.561216,47.4933796 147.578586,47.9594997 C147.663071,50.232057 148.157949,51.9713755 148.455812,54.0651313 C148.995428,58.5464332 149.44759,62.2611598 149.168558,65.713853 C148.897192,67.0158316 147.939178,68.2065576 147.085146,69.0342189 L146.934373,71.7508819 C143.084745,72.0701507 139.209366,72.6547854 135.33854,73.5345495 C118.682381,77.320175 104.341721,85.9085138 93.4235809,97.5042984 C92.7151243,97.0204887 91.4756872,96.1304287 91.1071338,95.857836 C89.9618406,96.0126562 88.8043232,96.3663909 87.296683,95.487382 C84.426,93.5530608 81.8114452,90.8830256 78.6477819,87.6666854 C77.1981746,86.1281475 76.1484244,84.6630945 74.4261314,83.1800753 C74.0350113,82.8432881 73.4381204,82.3877756 73.000639,82.0412721 C71.6541495,80.9666502 70.0660106,80.4062163 68.5322685,80.3536481 C66.5603125,80.2860597 64.6619733,81.0578291 63.4196852,82.6175339 C61.2111764,85.3903435 61.9182601,89.6284125 64.9959509,92.0846929 C65.0271801,92.1095874 65.0604357,92.1289411 65.0918975,92.1532955 C65.5148169,92.496471 66.0327049,92.9361906 66.4214433,93.2234961 C68.2490868,94.5742758 69.9185928,95.2657462 71.7396264,96.3380542 C75.5761748,98.7097548 78.7567203,100.676311 81.2794602,103.047389 C82.2645939,104.098565 82.4367758,105.950835 82.567886,106.751929 L84.6238847,108.590479 C73.6175833,125.170874 68.523777,145.651013 71.5340485,166.518515 L68.8475436,167.300585 C68.1394906,168.215847 67.138966,169.65601 66.0924835,170.085851 C62.7918633,171.126507 59.0772011,171.508653 54.5925976,171.979282 C52.4871191,172.154532 50.6704408,172.049949 48.4383083,172.473221 C47.9470266,172.56638 47.2625096,172.744896 46.7249761,172.871116 C46.7062912,172.875068 46.6888344,172.8806 46.6701495,172.884815 C46.6408501,172.89162 46.6023575,172.905846 46.5742029,172.912256 C42.793297,173.826719 40.3644334,177.305457 41.1463664,180.732952 C41.9284837,184.161252 45.6215968,186.246086 49.4251877,185.42537 C49.4526449,185.419092 49.4925148,185.418038 49.5211343,185.411672 C49.5640745,185.401837 49.6018786,185.380982 49.6444942,185.370532 C50.1747116,185.254024 50.8391753,185.124397 51.3029998,185.000078 C53.49753,184.411905 55.0868882,183.547696 57.059796,182.791074 C61.3042282,181.26721 64.8196196,179.994187 68.2444287,179.49815 C69.6748248,179.386006 71.1818686,180.381602 71.9315197,180.801599 L74.7276778,180.321381 C81.1622102,200.290915 94.6469209,216.431604 111.721947,226.559534 L110.556881,229.35852 C110.976818,230.44537 111.439989,231.915893 111.127175,232.98922 C109.882092,236.221204 107.749429,239.632573 105.320938,243.435774 C104.145082,245.192844 102.941668,246.556417 101.880567,248.567249 C101.626654,249.048406 101.303273,249.787527 101.058167,250.296034 C99.409491,253.827086 100.618835,257.893997 103.785792,259.42018 C106.972645,260.955948 110.928373,259.336171 112.640293,255.797963 C112.642925,255.792958 112.651565,255.789269 112.653978,255.784264 C112.655732,255.780313 112.652223,255.774385 112.653978,255.770566 C112.897816,255.268921 113.243268,254.609537 113.448964,254.137824 C114.357827,252.053613 114.660242,250.267513 115.299363,248.251721 C116.996629,243.984028 117.929142,239.506138 120.265594,236.715898 C120.90539,235.951838 121.948469,235.657991 123.029918,235.368152 L124.482823,232.733812 C139.368578,238.453315 156.030795,239.988108 172.675432,236.205104 C176.472492,235.342107 180.138187,234.2252 183.681878,232.884738 C184.090218,233.609765 184.849084,235.003493 185.052544,235.354431 C186.151528,235.712342 187.351069,235.897167 188.328435,237.343907 C190.076479,240.333435 191.271923,243.870115 192.728272,248.141956 C193.367498,250.157714 193.683405,251.943893 194.592378,254.02806 C194.799552,254.503097 195.143276,255.171741 195.387364,255.674522 C197.095683,259.224225 201.063946,260.849538 204.255571,259.31046 C207.422138,257.783465 208.632815,253.716922 206.983196,250.186314 C206.73806,249.677825 206.401025,248.938673 206.14709,248.457528 C205.085883,246.446754 203.882662,245.096778 202.706719,243.339774 C200.278026,239.536701 198.263709,236.377346 197.018456,233.145428 C196.497774,231.478518 197.106301,230.441831 197.511896,229.358564 C197.269001,229.079864 196.749231,227.505706 196.442776,226.765386 C214.18792,216.27713 227.276642,199.534526 233.423339,180.19794 C234.25337,180.328524 235.69603,180.584029 236.16467,180.678158 C237.129417,180.041219 238.016468,179.210163 239.755815,179.347268 C243.180646,179.843125 246.695936,181.116547 250.940447,182.640193 C252.913395,183.396714 254.502687,184.274858 256.697244,184.862917 C257.161073,184.987209 257.825523,185.103169 258.355749,185.21965 C258.398383,185.2301 258.436147,185.250999 258.479109,185.26079 C258.507751,185.2672 258.547599,185.26821 258.575056,185.274489 C262.378866,186.094185 266.072637,184.010572 266.853877,180.582071 C267.634933,177.154373 265.207192,173.674827 261.426041,172.761374 C260.876051,172.636186 260.096056,172.423573 259.561935,172.322317 C257.329781,171.899163 255.513133,172.003518 253.407646,171.828379 C248.92302,171.357982 245.208433,170.975428 241.90776,169.934947 C240.561981,169.412347 239.60459,167.809368 239.138993,167.149681 L236.548435,166.395053 C237.891582,156.668007 237.529415,146.544713 235.205183,136.415716 C232.859309,126.192409 228.713547,116.842202 223.184444,108.604221 C223.848964,107.999513 225.103898,106.88711 225.459749,106.559864 C225.56377,105.407704 225.474399,104.199702 226.665935,102.923926 C229.188548,100.552717 232.369347,98.586494 236.205769,96.2145915 C238.026745,95.1421868 239.710085,94.4509097 241.537658,93.1000334 C241.950942,92.7945553 242.515283,92.3107895 242.949444,91.9612302 C246.026481,89.5041243 246.734929,85.26631 244.52571,82.4940712 C242.31649,79.7218324 238.0355,79.4607035 234.958463,81.9178094 C234.520481,82.2650373 233.926174,82.7179989 233.53297,83.0566125 C231.810756,84.5397283 230.747141,86.0046101 229.297613,87.5432227 C226.134121,90.7597297 223.519294,93.4431649 220.648712,95.3776397 C219.404801,96.1025486 217.582824,95.8517243 216.755999,95.8029759 L214.316214,97.5454819 C200.403935,82.9422076 181.462053,73.6057162 161.065937,71.7920434 C161.008891,70.936445 160.934155,69.3898899 160.915163,68.9244547 C160.080171,68.1246472 159.071489,67.4418219 158.818045,65.713853 C158.539012,62.2611598 159.004881,58.5464332 159.544498,54.0651313 C159.84236,51.9713755 160.337238,50.232057 160.421724,47.9594997 C160.440935,47.4428925 160.410101,46.693256 160.408039,46.1346705 C160.407618,42.1945367 157.535983,38.99964 153.993323,39 L153.993301,39 Z M145.9612,88.8054886 L144.055974,122.489366 L143.918908,122.557968 C143.791122,125.571368 141.313564,127.977574 138.271765,127.977574 C137.025749,127.977574 135.875648,127.577027 134.941047,126.893653 L134.88622,126.921094 L107.294718,107.341911 C115.77471,98.9949397 126.621286,92.8265274 139.121578,89.9854533 C141.404993,89.4664752 143.68739,89.0813918 145.9612,88.8054886 Z M162.039109,88.8054886 C176.633287,90.6022489 190.130086,97.2172959 200.472578,107.355632 L173.059262,126.81133 L172.963316,126.77019 C170.530132,128.549112 167.101941,128.107728 165.205347,125.727431 C164.428423,124.752303 164.020776,123.605738 163.971748,122.448226 L163.944335,122.434528 L162.039109,88.8054886 Z M97.2888584,119.923629 L122.481695,142.480164 L122.454282,142.617369 C124.728214,144.596184 125.063538,148.030033 123.167028,150.410625 C122.390157,151.385791 121.350258,152.03985 120.233803,152.345218 L120.20639,152.454982 L87.9135045,161.784936 C86.2698986,146.740585 89.812063,132.11628 97.2888584,119.923629 Z M210.519558,119.937327 C214.262725,126.010605 217.09724,132.793845 218.784672,140.147653 C220.451867,147.413286 220.870273,154.665927 220.182751,161.67515 L187.725386,152.317755 L187.697973,152.18055 C184.791503,151.385401 183.005282,148.425904 183.681922,145.457495 C183.959139,144.241475 184.603983,143.212756 185.477494,142.452701 L185.463809,142.384098 L210.51958,119.937327 L210.519558,119.937327 Z M148.825891,144.222648 L159.147005,144.222648 L165.56172,152.249152 L163.259002,162.265132 L153.993301,166.724301 L144.700187,162.251412 L142.397469,152.235432 L148.825891,144.222648 Z M181.913763,171.69113 C182.352363,171.668957 182.789051,171.708516 183.215896,171.787173 L183.270722,171.718571 L216.673847,177.371425 C211.785285,191.11965 202.430849,203.029975 189.932158,211.00042 L176.96566,179.649031 L177.006758,179.594149 C175.815656,176.823706 177.007635,173.574876 179.748089,172.253671 C180.449717,171.915417 181.182744,171.728116 181.913741,171.69113 L181.913763,171.69113 Z M125.812413,171.828335 C128.361518,171.864118 130.647955,173.635163 131.24025,176.232622 C131.517536,177.448624 131.382579,178.65347 130.924996,179.717634 L131.020943,179.841119 L118.191511,210.876935 C106.19669,203.172106 96.6427726,191.635704 91.5320621,177.481211 L124.647347,171.855798 L124.702174,171.9244 C125.072587,171.856167 125.448255,171.823242 125.812413,171.828357 L125.812413,171.828335 Z M153.787701,185.425392 C154.675652,185.392727 155.576651,185.575102 156.433086,185.987934 C157.555721,186.529084 158.422955,187.381144 158.968818,188.402745 L159.092178,188.402745 L175.416807,217.929305 C173.298179,218.640239 171.120114,219.247827 168.892438,219.754134 C156.407524,222.591713 143.962278,221.731939 132.693155,217.888143 L148.976665,188.416466 L149.004078,188.416466 C149.981163,186.588054 151.834215,185.497235 153.787701,185.425392 Z" id="path3059" fill="#FFFFFF"></path>
        </g>
        <g id="Group-2" transform="translate(80.000000, 307.000000)">
            <path d="M109,1 L196.198177,1 L212,7.29918764 L212,138.800595 L204.272436,149 L109,149 L7.72756398,149 L0,138.642075 L1.74974401e-13,7.29918764 L15.8018233,1 L109,1 Z" id="Combined-Shape" fill="#353535"></path>
            <path d="M0,18 L212,18 L212,6.60000014 C212,2.95492072 209.045079,2.18588192e-16 205.4,8.8817842e-16 L6.60000014,0 C2.95492072,6.69590228e-16 4.41784934e-16,2.95492072 8.8817842e-16,6.60000014 L0,18 Z" id="Path-2" fill="#D2D2D2"></path>
            <path d="M0,149 L212,149 L212,144.6 C212,140.954921 209.045079,138 205.4,138 L6.60000014,138 C2.95492072,138 4.41784934e-16,140.954921 8.8817842e-16,144.6 L0,149 Z" id="Path-2" fill="#D2D2D2" transform="translate(106.000000, 143.500000) scale(1, -1) translate(-106.000000, -143.500000) "></path>
            <text id="&gt;-kubectl-get-pods" font-family="AndaleMono, Andale Mono" font-size="17.4" font-weight="normal" fill="#58B311">
                <tspan x="6" y="43">&gt; kubectl get pods</tspan>
            </text>
        </g>
        <circle id="Oval" fill="#FDD276" cx="99.5" cy="316.5" r="3.5"></circle>
        <circle id="Oval" fill="#8DC87A" cx="109.5" cy="316.5" r="3.5"></circle>
        <circle id="Oval" fill="#F16F68" cx="89.5" cy="316.5" r="3.5"></circle>
        <g id="Green-arrow-right" transform="translate(309.000000, 311.000000)" fill="#B8E986">
            <polygon id="Triangle" points="387.100006 28.5721525 315.600004 68.1721534 315.600004 -11.0278483"></polygon>
            <polygon id="Rectangle" points="0 38.7784819 2.11540408e-15 16.7784814 366.200005 16.7784814 366.200005 38.7784819"></polygon>
        </g>
        <g id="Green-arrow-right" transform="translate(513.000000, 428.500000) scale(-1, 1) translate(-513.000000, -428.500000) translate(330.000000, 400.000000)" fill="#B8E986">
            <polygon id="Triangle" points="387.100006 28.5721525 315.600004 68.1721534 315.600004 -11.0278483"></polygon>
            <polygon id="Rectangle" points="0 38.7784819 2.11540408e-15 16.7784814 366.200005 16.7784814 366.200005 38.7784819"></polygon>
        </g>
        <text id="KUBERNETES" fill="#4A4A4A" font-family="Arial-BoldMT, Arial" font-size="41.6" font-weight="bold">
            <tspan x="862.695312" y="90">KUBERNETES</tspan>
        </text>
        <text id="KUBECTL" fill="#4A4A4A" font-family="Arial-BoldMT, Arial" font-size="41.6" font-weight="bold">
            <tspan x="86.63125" y="90">KUBECTL</tspan>
        </text>
        <text id="HTTP" fill="#4A4A4A" font-family="Arial-BoldMT, Arial" font-size="41.6" font-weight="bold">
            <tspan x="437.694531" y="403">HTTP</tspan>
        </text>
    </g>
</svg>

<svg viewBox="0 0 1200 750" xmlns="http://www.w3.org/2000/svg"><g stroke="none" stroke-width="1" fill="none" fill-rule="evenodd"><g transform="translate(707 52)"><g transform="rotate(-90 323 323)" fill="#53777A"><path d="M14.5.5h617c7.732 0 14 6.268 14 14v51c0 7.732-6.268 14-14 14h-617c-7.732 0-14-6.268-14-14v-51c0-7.732 6.268-14 14-14z"/></g><text transform="rotate(-90 39.5 319)" font-family="sans-serif" font-size="46.64" font-weight="bold" fill="#FFF"><tspan x="-166.52" y="335">KUBERNETES API</tspan></text></g><g transform="translate(852 225)" fill-rule="nonzero" stroke="#FFF" stroke-width=".634"><path d="M152.932.026c-2.723.138-5.39.813-7.847 1.987L38.01 53.201c-5.614 2.682-9.692 7.755-11.08 13.783L.516 181.964a20.188 20.188 0 0 0 2.78 15.579c.36.557.75 1.097 1.163 1.616l74.114 92.196A20.535 20.535 0 0 0 94.581 299l118.853-.027a20.536 20.536 0 0 0 16.008-7.632l74.087-92.209a20.2 20.2 0 0 0 3.957-17.195L281.03 66.957c-1.387-6.028-5.465-11.101-11.079-13.784L162.86 2.013a20.611 20.611 0 0 0-9.928-1.987z" fill="#326CE5"/><path d="M153.993 39c-3.542 0-6.415 3.195-6.414 7.135 0 .06.012.118.013.178-.005.535-.03 1.18-.013 1.646.084 2.273.579 4.012.877 6.106.54 4.481.992 8.196.713 11.649-.272 1.302-1.23 2.493-2.084 3.32l-.15 2.717c-3.85.32-7.726.904-11.596 1.784-16.657 3.785-30.997 12.374-41.915 23.97a107.534 107.534 0 0 1-2.317-1.647c-1.145.155-2.303.508-3.81-.37-2.871-1.935-5.486-4.605-8.65-7.821-1.449-1.539-2.499-3.004-4.22-4.487-.392-.337-.989-.792-1.426-1.139-1.347-1.074-2.935-1.635-4.469-1.687-1.972-.068-3.87.704-5.112 2.264-2.209 2.772-1.502 7.01 1.576 9.467.031.025.064.044.096.068.423.343.94.783 1.33 1.07 1.827 1.351 3.497 2.043 5.318 3.115 3.836 2.372 7.017 4.338 9.54 6.71.985 1.05 1.157 2.903 1.288 3.704l2.056 1.838c-11.006 16.58-16.1 37.061-13.09 57.929l-2.686.782c-.709.915-1.709 2.355-2.756 2.785-3.3 1.04-7.015 1.423-11.5 1.893-2.105.176-3.922.07-6.154.494-.491.093-1.175.272-1.713.398l-.055.014c-.03.007-.068.02-.096.027-3.78.915-6.21 4.393-5.428 7.821s4.476 5.513 8.28 4.692c.027-.006.067-.007.095-.013.043-.01.08-.031.123-.041.53-.117 1.195-.247 1.659-.37 2.195-.59 3.784-1.453 5.757-2.21 4.244-1.524 7.76-2.797 11.184-3.293 1.43-.112 2.938.884 3.688 1.304l2.796-.48c6.434 19.969 19.919 36.11 36.994 46.238l-1.165 2.799c.42 1.086.883 2.557.57 3.63-1.245 3.232-3.378 6.644-5.806 10.447-1.176 1.757-2.38 3.12-3.44 5.131-.254.481-.578 1.22-.823 1.729-1.649 3.531-.44 7.598 2.728 9.124 3.187 1.536 7.142-.084 8.854-3.622.003-.005.012-.009.014-.014.002-.004-.002-.01 0-.013.244-.502.59-1.161.795-1.633.909-2.084 1.211-3.87 1.85-5.886 1.698-4.268 2.63-8.746 4.967-11.536.64-.764 1.682-1.058 2.764-1.348l1.453-2.634c14.886 5.72 31.548 7.254 48.192 3.471a83.173 83.173 0 0 0 11.007-3.32c.408.725 1.167 2.118 1.37 2.47 1.1.357 2.3.542 3.276 1.989 1.748 2.99 2.944 6.526 4.4 10.798.64 2.016.955 3.802 1.864 5.886.208.475.551 1.144.795 1.647 1.709 3.55 5.677 5.175 8.869 3.635 3.166-1.527 4.377-5.593 2.727-9.124-.245-.508-.582-1.247-.836-1.728-1.061-2.011-2.264-3.361-3.44-5.118-2.429-3.803-4.443-6.963-5.689-10.195-.52-1.666.088-2.703.494-3.786-.243-.28-.763-1.853-1.07-2.594 17.746-10.488 30.835-27.23 36.981-46.567.83.13 2.273.386 2.742.48.964-.637 1.851-1.468 3.59-1.33 3.426.495 6.94 1.769 11.185 3.292 1.973.757 3.563 1.635 5.757 2.223.464.124 1.129.24 1.659.357.042.01.08.031.123.04.029.007.069.008.096.014 3.804.82 7.498-1.263 8.279-4.692.78-3.428-1.647-6.907-5.428-7.82-.55-.126-1.33-.338-1.864-.44-2.232-.423-4.049-.318-6.154-.494-4.485-.47-8.2-.853-11.5-1.893-1.346-.523-2.303-2.126-2.769-2.785l-2.59-.755a83.008 83.008 0 0 0-1.344-29.98 83.166 83.166 0 0 0-12.02-27.81c.664-.605 1.919-1.718 2.275-2.045.104-1.152.014-2.36 1.206-3.636 2.523-2.371 5.703-4.338 9.54-6.71 1.82-1.072 3.504-1.763 5.332-3.114.413-.305.977-.79 1.411-1.139 3.077-2.457 3.786-6.695 1.577-9.467-2.21-2.772-6.49-3.033-9.568-.576-.438.347-1.032.8-1.425 1.139-1.722 1.483-2.786 2.948-4.235 4.486-3.164 3.217-5.779 5.9-8.65 7.835-1.243.725-3.065.474-3.892.425l-2.44 1.742c-13.912-14.603-32.854-23.94-53.25-25.753-.057-.856-.132-2.402-.15-2.868-.836-.8-1.845-1.482-2.098-3.21-.279-3.453.187-7.168.726-11.649.298-2.094.793-3.833.878-6.106.019-.516-.012-1.266-.014-1.824 0-3.94-2.872-7.135-6.415-7.135h0zm-8.032 49.805l-1.905 33.684-.137.069a5.657 5.657 0 0 1-5.647 5.42c-1.246 0-2.396-.401-3.331-1.084l-.055.027-27.591-19.58c8.48-8.346 19.326-14.514 31.827-17.356a67.539 67.539 0 0 1 6.84-1.18zm16.078 0c14.594 1.797 28.091 8.412 38.434 18.55l-27.414 19.456-.096-.04a5.657 5.657 0 0 1-7.758-1.044 5.626 5.626 0 0 1-1.233-3.279l-.028-.013-1.905-33.63zm-64.75 31.119l25.193 22.556-.028.137a5.658 5.658 0 0 1-2.22 9.728l-.028.11-32.292 9.33a66.188 66.188 0 0 1 9.375-41.861zm113.23.013a67 67 0 0 1 8.266 20.21 66.913 66.913 0 0 1 1.398 21.528l-32.458-9.357-.027-.137a5.664 5.664 0 0 1-4.016-6.724 5.615 5.615 0 0 1 1.795-3.004l-.013-.069 25.056-22.447h0zm-61.693 24.286h10.321l6.415 8.026-2.303 10.016-9.266 4.46-9.293-4.474-2.303-10.016 6.429-8.012zm33.088 27.468c.438-.022.875.018 1.302.096l.055-.068 33.403 5.652c-4.889 13.749-14.243 25.659-26.742 33.63l-12.966-31.352.04-.055a5.67 5.67 0 0 1 2.742-7.34 5.637 5.637 0 0 1 2.166-.563h0zm-56.102.137a5.658 5.658 0 0 1 5.428 4.405 5.613 5.613 0 0 1-.315 3.485l.096.123-12.83 31.036c-11.994-7.705-21.548-19.241-26.659-33.396l33.115-5.625.055.068a5.72 5.72 0 0 1 1.11-.096h0zm27.976 13.597a5.594 5.594 0 0 1 2.645.563 5.619 5.619 0 0 1 2.536 2.415h.123l16.325 29.526a67.605 67.605 0 0 1-6.525 1.825c-12.484 2.838-24.93 1.978-36.199-1.866l16.284-29.472h.027a5.662 5.662 0 0 1 4.784-2.99z" fill="#FFF"/></g><g transform="translate(80 307)"><path d="M109 1h87.198L212 7.3v131.5l-7.728 10.2H7.728L0 138.642V7.3L15.802 1H109z" fill="#353535"/><path d="M0 18h212V6.6a6.6 6.6 0 0 0-6.6-6.6H6.6A6.6 6.6 0 0 0 0 6.6V18z" fill="#D2D2D2"/><path d="M0 149h212v-4.4a6.6 6.6 0 0 0-6.6-6.6H6.6a6.6 6.6 0 0 0-6.6 6.6v4.4z" fill="#D2D2D2" transform="matrix(1 0 0 -1 0 287)"/><text font-family="sans-serif" font-size="17.4" font-weight="normal" fill="#58B311"><tspan x="6" y="43">> kubectl get pods</tspan></text></g><circle fill="#FDD276" cx="99.5" cy="316.5" r="3.5"/><circle fill="#8DC87A" cx="109.5" cy="316.5" r="3.5"/><circle fill="#F16F68" cx="89.5" cy="316.5" r="3.5"/><g transform="translate(309 311)" fill="#B8E986"><path d="M387.1 28.572l-71.5 39.6v-79.2z"/><path d="M0 38.778v-22h366.2v22z"/></g><g transform="matrix(-1 0 0 1 696 400)" fill="#B8E986"><path d="M387.1 28.572l-71.5 39.6v-79.2z"/><path d="M0 38.778v-22h366.2v22z"/></g><text fill="#4A4A4A" font-family="sans-serif" font-size="41.6" font-weight="bold"><tspan x="862.695" y="90">KUBERNETES</tspan></text><text fill="#4A4A4A" font-family="sans-serif" font-size="41.6" font-weight="bold"><tspan x="86.631" y="90">KUBECTL</tspan></text><text fill="#4A4A4A" font-family="sans-serif" font-size="41.6" font-weight="bold"><tspan x="437.695" y="403">HTTP</tspan></text></g></svg>
